src/Pure-Dark/16/symbolic/status/notification-disabled-new-symbolic.svg

<?xml version="1.0" encoding="UTF-8" standalone="no"?>
<!-- Created with Inkscape (http://www.inkscape.org/) -->

<svg
   width="16"
   height="16"
   viewBox="0 0 16 16"
   version="1.1"
   id="svg5"
   inkscape:version="1.4.2 (ebf0e940d0, 2025-05-08)"
   sodipodi:docname="notification-disabled-new-symbolic.svg"
   xmlns:inkscape="http://www.inkscape.org/namespaces/inkscape"
   xmlns:sodipodi="http://sodipodi.sourceforge.net/DTD/sodipodi-0.dtd"
   xmlns="http://www.w3.org/2000/svg"
   xmlns:svg="http://www.w3.org/2000/svg">
  <sodipodi:namedview
     id="namedview7"
     pagecolor="#ffffff"
     bordercolor="#666666"
     borderopacity="1.0"
     inkscape:showpageshadow="2"
     inkscape:pageopacity="0.0"
     inkscape:pagecheckerboard="0"
     inkscape:deskcolor="#d1d1d1"
     inkscape:document-units="px"
     showgrid="false"
     showguides="false"
     inkscape:zoom="50.25"
     inkscape:cx="7.9900498"
     inkscape:cy="7.9900498"
     inkscape:window-width="1920"
     inkscape:window-height="1010"
     inkscape:window-x="0"
     inkscape:window-y="0"
     inkscape:window-maximized="1"
     inkscape:current-layer="svg5" />
  <defs
     id="defs2">
     <style
        id="current-color-scheme"
        type="text/css">
        .ColorScheme-Text { color:#f2f2f2; }
        .ColorScheme-NeutralText { color:#f67400; }
        .ColorScheme-PositiveText { color:#37c837; }
        .ColorScheme-NegativeText { color:#f44336; }
        .ColorScheme-Highlight { color:#3daee9; }
     </style>
  </defs>
  <path
     d="M 8,1 C 7.4085731,1.000584 6.946857,1.5115374 7.006,2.1 4.6727172,2.5685241 2.9954112,4.6201465 3,7 v 4.5 l -2,2 V 14 h 14 v -0.5 l -2,-2 V 7.87 c -0.326687,0.083996 -0.662687,0.1263321 -1,0.126 v 3.926 L 13,13 H 3 L 4,11.922 V 7 C 4,4.790861 5.790861,3 8,3 8.044,3.001 8.087,3.003 8.13,3.006 8.2695531,2.4621742 8.5220276,1.9538179 8.871,1.514 8.6950878,1.1976587 8.361961,1.0010719 8,1 Z M 6.27,15 c 0.356899,0.618168 1.0162016,0.999268 1.73,1 0.7130835,-0.0014 1.371459,-0.382449 1.728,-1 z"
     style="fill:currentColor;stroke-width:3;stroke-linecap:round;opacity:0.35"
     id="path1"
     class="ColorScheme-Text" />
  <circle
     style="fill:currentColor"
     id="path2"
     cx="12"
     cy="4"
     r="3"
     class="ColorScheme-NeutralText warning" />
</svg>

<svg width="16" height="16" version="1.1" xmlns="http://www.w3.org/2000/svg">
 <path d="m8 1a1 1 0 0 0-0.994 1.1 4.988 4.988 0 0 0-4.006 4.9v4.5l-2 2v0.5h14v-0.5l-2-2v-3.63a4 4 0 0 1-1 0.126v3.926l1 1.078h-10l1-1.078v-4.922a4 4 0 0 1 4-4c0.044 1e-3 0.087 3e-3 0.13 6e-3a4 4 0 0 1 0.741-1.492 1 1 0 0 0-0.871-0.514zm-1.73 14a2 2 0 0 0 1.73 1 2 2 0 0 0 1.728-1z" fill="#f2f2f2" opacity=".35" stroke-linecap="round" stroke-width="3"/>
 <path d="m15 4a3 3 0 0 1-6 0 3 3 0 1 1 6 0z" color="#bebebe" fill="#009dff" overflow="visible" stroke-width="1.2" style="isolation:auto;mix-blend-mode:normal"/>
</svg>
